X: 8248
T: Cordal, The
R: jig
M: 6/8
K: Dmajor
|:BAF ~E3|FEF DFA|BAF EFA|B{d}B A Bcd|
BAF ~E3|FEF DFA|def edc|~B3 Bcd:|
|:d2 e fed|c2 d ecA|d2 e fed|f2 e fga|
dcd fed|cBc ecA|dcd fed|~f3 fga:|

